content/assets/img/plus.svg

<svg enable-background="new 0 0 24 24" viewBox="0 0 24 24" xmlns="http://www.w3.org/2000/svg"><path d="m21.25 0h-18.5c-1.517 0-2.75 1.233-2.75 2.75v18.5c0 1.517 1.233 2.75 2.75 2.75h18.5c1.517 0 2.75-1.233 2.75-2.75v-18.5c0-1.517-1.233-2.75-2.75-2.75z" fill="#278cff"/><path d="m17.25 13h-4.25v4.25c0 .552-.447 1-1 1s-1-.448-1-1v-4.25h-4.25c-.553 0-1-.448-1-1s.447-1 1-1h4.25v-4.25c0-.552.447-1 1-1s1 .448 1 1v4.25h4.25c.553 0 1 .448 1 1s-.447 1-1 1z" fill="#fafafa"/></svg>

<svg xmlns="http://www.w3.org/2000/svg" viewBox="0 0 24 24"><path fill="#278cff" d="M21.25 0H2.75A2.75 2.75 0 0 0 0 2.75v18.5A2.75 2.75 0 0 0 2.75 24h18.5A2.75 2.75 0 0 0 24 21.25V2.75A2.75 2.75 0 0 0 21.25 0"/><path fill="#fafafa" d="M17.25 13H13v4.25a1 1 0 1 1-2 0V13H6.75a1 1 0 1 1 0-2H11V6.75a1 1 0 1 1 2 0V11h4.25a1 1 0 1 1 0 2"/></svg>
